X: 23533
T: Lieutenant Maguire's
R: jig
M: 6/8
K: Bminor
|:A|B3 d2e|fBB fBB|A3 c2d|eAA eAA|
B3 d2e|fBB fBB|f3 edc|dBA B2:|
|:c|d2e fdd|add fdd|d2e fdd|eAA ABc|
d2e fdd|add fdd|f3 edc|dBA B2:|
|:f|B3 BFB|BAB fBB|A3 AEA|AEA eAA|
B3 BFB|BAB fBB|f3 edc|dBA B2:|

